!!!OTL: Wawa shuikeke
!!!ARE: Asia, China,ÿHubei Gongan
!! I, 398
!!!SCT: C2147
!!!YEM: Copyright 1995, estate of Helmut Schaffrath.
**kern
*ICvox
*Ivox
*M2/4
*k[b-e-]
*B-:
{16b-
16cc
8dd
4cc
=1
16b-
16cc
16b-
16g
4f
=2
16g
16b-
8cc
16cc
16dd
8f
=3
16g
16f
16cc
16dd
4f}
=4
{16g
16b-
16cc
16dd
8.b-
16cc
=5
16g
16f
16dd
16cc
4f
=6
16f
16g
16b-
16cc
16g
16f
8e-
=7
2f}
==
!!!AGN: Xiaodiao, Erge
!!!ONB: ESAC (Essen Associative Code) Database: SENGANSU
!!!AMT: simple duple
!!!AIN: vox
!!!EED: Helmut Schaffrath
!!!EEV: 1.0
*-
